images/country-icon-7.svg

<svg width="18" height="18" viewBox="0 0 18 18" fill="none" xmlns="http://www.w3.org/2000/svg">
<mask id="mask0_2129_11577" style="mask-type:alpha" maskUnits="userSpaceOnUse" x="0" y="0" width="18" height="18">
<circle cx="9" cy="9" r="9" fill="#D9D9D9"/>
</mask>
<g mask="url(#mask0_2129_11577)">
<path d="M29 0H0V18H29V0Z" fill="#F42525"/>
<path d="M5.92192 5.08134L6.70571 7.23445L4.87688 5.85646L2.96096 7.23445L3.74475 5.08134L1.82883 3.78947H4.18018L4.78979 1.55024L5.48649 3.78947H7.92493L5.92192 5.08134Z" fill="white"/>
<path d="M11.1471 7.32057L11.2342 6.88995L11.4084 7.32057L11.3213 7.7512L11.1471 7.32057Z" fill="white"/>
<path d="M11.4084 7.32057H11.9309L11.4955 7.57895H11.0601L11.4084 7.32057Z" fill="white"/>
<path d="M11.4955 7.57895L11.6697 8.00957L11.3213 7.7512L11.1471 7.32057L11.4955 7.57895Z" fill="white"/>
<path d="M11.1471 7.32057H10.6246L11.0601 7.57895H11.4955L11.1471 7.32057Z" fill="white"/>
<path d="M11.0601 7.57895L10.8859 8.00957L11.3213 7.7512L11.4084 7.32057L11.0601 7.57895Z" fill="white"/>
<path d="M8.96997 9.55981L9.23123 9.12919V9.64593L8.96997 9.99043V9.55981Z" fill="white"/>
<path d="M9.23123 9.64593L9.66667 9.81818L9.23123 9.90431L8.7958 9.81818L9.23123 9.64593Z" fill="white"/>
<path d="M9.23123 9.90431V10.4211L8.96997 9.99043V9.55981L9.23123 9.90431Z" fill="white"/>
<path d="M8.96997 9.55981L8.53453 9.47368L8.7958 9.81818L9.23123 9.90431L8.96997 9.55981Z" fill="white"/>
<path d="M8.7958 9.81818L8.53453 10.1627L8.96997 9.99043L9.23123 9.64593L8.7958 9.81818Z" fill="white"/>
<path d="M11.7568 4.47847L12.1051 4.2201L11.9309 4.65072L11.5826 4.90909L11.7568 4.47847Z" fill="white"/>
<path d="M11.9309 4.65072L12.3664 4.90909H11.8438L11.4955 4.65072H11.9309Z" fill="white"/>
<path d="M11.8438 4.90909L11.7568 5.42584L11.5826 4.99522L11.6697 4.56459L11.8438 4.90909Z" fill="white"/>
<path d="M11.7568 4.47847L11.3213 4.2201L11.4955 4.65072L11.8438 4.90909L11.7568 4.47847Z" fill="white"/>
<path d="M11.4955 4.65072L11.1471 4.99522L11.5826 4.90909L11.9309 4.65072H11.4955Z" fill="white"/>
<path d="M10.3634 1.89474L10.6246 1.46411V1.98086L10.3634 2.32536V1.89474Z" fill="white"/>
<path d="M10.6246 1.98086L11.0601 2.06699L10.6246 2.23923L10.1892 2.06699L10.6246 1.98086Z" fill="white"/>
<path d="M10.6246 2.23923V2.75598L10.3634 2.32536V1.89474L10.6246 2.23923Z" fill="white"/>
<path d="M10.3634 1.89474L9.92793 1.72249L10.1892 2.15311L10.6246 2.23923L10.3634 1.89474Z" fill="white"/>
<path d="M10.1892 2.15311L9.92793 2.49761L10.3634 2.32536L10.6246 1.98086L10.1892 2.15311Z" fill="white"/>
</g>
</svg>

<svg width="18" height="18" fill="none" xmlns="http://www.w3.org/2000/svg"><mask id="mask0_2129_11577" style="mask-type:alpha" maskUnits="userSpaceOnUse" x="0" y="0" width="18" height="18"><circle cx="9" cy="9" r="9" fill="#D9D9D9"/></mask><g mask="url(#mask0_2129_11577)"><path d="M29 0H0v18h29V0z" fill="#F42525"/><path d="M5.922 5.081l.784 2.153-1.83-1.378-1.915 1.378.784-2.153L1.829 3.79H4.18l.61-2.239.696 2.24h2.439L5.922 5.08zm5.225 2.239l.087-.43.174.43-.087.431-.174-.43z" fill="#fff"/><path d="M11.408 7.32h.523l-.435.259h-.436l.348-.258z" fill="#fff"/><path d="M11.495 7.579l.175.43-.349-.258-.174-.43.348.258z" fill="#fff"/><path d="M11.147 7.32h-.522l.435.259h.435l-.348-.258z" fill="#fff"/><path d="M11.06 7.579l-.174.43.435-.258.087-.43-.348.258zM8.97 9.56l.261-.43v.516l-.261.344v-.43z" fill="#fff"/><path d="M9.231 9.646l.436.172-.436.086-.435-.086.435-.172z" fill="#fff"/><path d="M9.231 9.904v.517l-.261-.43V9.56l.261.344z" fill="#fff"/><path d="M8.97 9.56l-.435-.086.26.344.436.086-.261-.344z" fill="#fff"/><path d="M8.796 9.818l-.261.345.435-.173.261-.344-.435.172zm2.961-5.34l.348-.258-.174.43-.348.26.174-.432z" fill="#fff"/><path d="M11.93 4.65l.436.26h-.522l-.348-.26h.435z" fill="#fff"/><path d="M11.844 4.91l-.087.516-.174-.43.087-.431.174.344z" fill="#fff"/><path d="M11.757 4.478l-.436-.258.175.43.348.26-.087-.432z" fill="#fff"/><path d="M11.495 4.65l-.348.345.436-.086.348-.258h-.435zm-1.132-2.755l.262-.43v.516l-.262.344v-.43z" fill="#fff"/><path d="M10.625 1.98l.435.087-.435.172-.436-.172.436-.086z" fill="#fff"/><path d="M10.625 2.24v.516l-.262-.43v-.431l.262.344z" fill="#fff"/><path d="M10.363 1.895l-.435-.173.261.431.436.086-.262-.344z" fill="#fff"/><path d="M10.19 2.153l-.262.345.435-.173.262-.344-.436.172z" fill="#fff"/></g></svg>
